static/Link.svg

<svg width="18" height="18" viewBox="0 0 18 18" fill="none" xmlns="http://www.w3.org/2000/svg">
<path id="Vector" d="M14.6615 11.3086C13.7776 11.3086 12.9742 11.6531 12.377 12.2148L6.6622 9.30666C6.67278 9.19701 6.67843 9.08595 6.67843 8.97347C6.67843 8.84331 6.66996 8.71598 6.65584 8.59006L12.3029 5.71586C12.9072 6.31928 13.7402 6.69279 14.6608 6.69279C16.5048 6.69279 18 5.1945 18 3.34675C18 1.499 16.5055 0 14.6615 0C12.8175 0 11.3223 1.49829 11.3223 3.34604C11.3223 3.46206 11.3279 3.57595 11.3399 3.68913L5.6689 6.57536C5.06742 5.98821 4.24638 5.62672 3.34063 5.62672C1.49523 5.62672 0 7.12501 0 8.97276C0 10.8205 1.49523 12.3188 3.33922 12.3188C4.26332 12.3188 5.09919 11.9425 5.7042 11.3348L11.3519 14.209C11.3329 14.3547 11.3216 14.5026 11.3216 14.654C11.3216 16.5017 12.8168 18 14.6608 18C16.5048 18 18 16.5017 18 14.654C18 12.8062 16.5048 11.3079 14.6608 11.3079L14.6615 11.3086Z" fill="#BBC7D3"/>
</svg>

<svg xmlns="http://www.w3.org/2000/svg" width="18" height="18" fill="none"><path fill="#BBC7D3" d="M14.662 11.309c-.884 0-1.688.344-2.285.906L6.662 9.307a3.467 3.467 0 0 0-.006-.717l5.647-2.874a3.326 3.326 0 0 0 2.358.977A3.343 3.343 0 0 0 18 3.347 3.343 3.343 0 0 0 14.662 0a3.343 3.343 0 0 0-3.322 3.69L5.669 6.574a3.322 3.322 0 0 0-2.328-.948A3.343 3.343 0 0 0 0 8.973a3.343 3.343 0 0 0 3.34 3.346c.923 0 1.76-.377 2.364-.984l5.648 2.874A3.343 3.343 0 0 0 14.66 18 3.343 3.343 0 0 0 18 14.654a3.343 3.343 0 0 0-3.34-3.346h.002Z"/></svg>
